static/assets/img/decorations/deco-blob-10.svg

<svg fill="none" height="160" viewBox="0 0 260 160" width="260" xmlns="http://www.w3.org/2000/svg"><path d="m259.455 70.69c.094 10.735-1.17 20.786-2.732 30.81-.973 6.239-1.982 12.473-2.93 18.716-.521 3.442-.777 6.936-1.484 10.337-.395 1.902-1.248 3.805-2.289 5.457-1.467 2.324-2.299 4.767-2.568 7.459-.1.991-.176 2-.434 2.955-.924 3.426-3.213 5.502-6.74 5.607-3.979.119-8.006.169-11.947-.298-13.406-1.589-26.85-1.854-40.316-1.487-3.146.086-6.281.607-9.416.977-4.289.505-8.564 1.137-12.859 1.568-4.791.48-9.598 1.07-14.4 1.105-4.303.033-8.611-.592-12.912-.983-2.812-.255-5.648-.431-8.414-.959-5.309-1.014-10.578-.53-15.867-.022-.662.063-1.328.16-1.988.136-10.111-.361-19.7872 2.347-29.5022 4.464-8.512 1.855-17.008 2.965-25.705 2.588-4.836-.209-9.09-1.827-12.689-5.082-3.941-3.565-7.832-7.186-11.803-10.719-1.611-1.433-3.301-2.805-5.084-4.012-3.941-2.667-6.934-6.08-9.277-10.238-4.77-8.451-8.89599-17.114-10.44099-26.807-.104-.655-.26201-1.305-.42801-1.948-1.039-4.021-1.992-8.066-3.152-12.052-1.863-6.412-3.506003-12.857-3.098003-19.604.170003-2.805.576013-5.603 1.027013-8.379.293-1.799.79499-3.574 1.31799-5.325 2.391-7.993 3.75-16.181 4.561-24.46.506-5.174 1.71701-10.113 3.811-14.881 1.654-3.767 4.016-6.77203 7.5-9.05403 8.688-5.686997 17.951-7.239998 28.115-5.069 6.555 1.4 12.744 3.74802 19.01 5.95502 7.984 2.81201 16.119 3.68301 24.547 2.36398 7.873-1.233 15.7812-2.44499 23.7212-3.01999 8.768-.634 17.59-1.032 26.336.805 10.445 2.194 21.018 3.22302 31.707 2.90102 2.99-.09 5.99.065 8.98-.048 12.377-.47303 23.994 2.565 35.406 7.085 6.004 2.377 11.172 5.856 16.016 9.935 4.953 4.169 9.859 8.405 14.619 12.791 1.934 1.781 3.717 3.866 5.062 6.115 2.129 3.558 3.904 7.337 5.697 11.085 1.402 2.937 1.197 6.167 1.271 9.313.033 1.49-.17 2.986-.229 3.919zm-71.143 39.097-.301-.189-.045.308z" fill="#000"/></svg>

<svg width="260" height="160" viewBox="0 0 260 160" fill="none" xmlns="http://www.w3.org/2000/svg">
<path d="M259.455 70.69C259.549 81.425 258.285 91.476 256.723 101.5C255.75 107.739 254.741 113.973 253.793 120.216C253.272 123.658 253.016 127.152 252.309 130.553C251.914 132.455 251.061 134.358 250.02 136.01C248.553 138.334 247.721 140.777 247.452 143.469C247.352 144.46 247.276 145.469 247.018 146.424C246.094 149.85 243.805 151.926 240.278 152.031C236.299 152.15 232.272 152.2 228.331 151.733C214.925 150.144 201.481 149.879 188.015 150.246C184.869 150.332 181.734 150.853 178.599 151.223C174.31 151.728 170.035 152.36 165.74 152.791C160.949 153.271 156.142 153.861 151.34 153.896C147.037 153.929 142.729 153.304 138.428 152.913C135.616 152.658 132.78 152.482 130.014 151.954C124.705 150.94 119.436 151.424 114.147 151.932C113.485 151.995 112.819 152.092 112.159 152.068C102.048 151.707 92.3718 154.415 82.6568 156.532C74.1448 158.387 65.6488 159.497 56.9518 159.12C52.1158 158.911 47.8618 157.293 44.2628 154.038C40.3218 150.473 36.4308 146.852 32.4598 143.319C30.8488 141.886 29.1588 140.514 27.3758 139.307C23.4348 136.64 20.4418 133.227 18.0988 129.069C13.3288 120.618 9.20281 111.955 7.65781 102.262C7.55381 101.607 7.3958 100.957 7.2298 100.314C6.1908 96.293 5.2378 92.248 4.0778 88.262C2.2148 81.85 0.571797 75.405 0.979797 68.658C1.1498 65.853 1.55581 63.055 2.00681 60.279C2.29981 58.48 2.8018 56.705 3.3248 54.954C5.7158 46.961 7.0748 38.773 7.8858 30.494C8.3918 25.32 9.60281 20.381 11.6968 15.613C13.3508 11.846 15.7128 8.84097 19.1968 6.55897C27.8848 0.871973 37.1478 -0.681028 47.3118 1.48997C53.8668 2.88997 60.0558 5.23799 66.3218 7.44499C74.3058 10.257 82.4408 11.128 90.8688 9.80897C98.7418 8.57597 106.65 7.36398 114.59 6.78898C123.358 6.15498 132.18 5.75698 140.926 7.59398C151.371 9.78798 161.944 10.817 172.633 10.495C175.623 10.405 178.623 10.56 181.613 10.447C193.99 9.97397 205.607 13.012 217.019 17.532C223.023 19.909 228.191 23.388 233.035 27.467C237.988 31.636 242.894 35.872 247.654 40.258C249.588 42.039 251.371 44.124 252.716 46.373C254.845 49.931 256.62 53.71 258.413 57.458C259.815 60.395 259.61 63.625 259.684 66.771C259.717 68.261 259.514 69.757 259.455 70.69ZM188.312 109.787L188.011 109.598L187.966 109.906L188.312 109.787Z" fill="black"/>
</svg>
